X: 17203
T: Henry Reed's Schottische
R: barndance
M: 4/4
K: Dmajor
(3EFG|A>df>d A2 (3A^GA|B>eg>e B>e^d>e|c>de>f g>ec>e|(3dfe (3dcB A2 (3EFG|
A2 f>d A2 ^G>A|B>e (3gfe B>e^d>e|c2 (3def g2 c>e|d2 d2 d2||
(3a^ga|b>af>d A2 (3a^ga|b>ag>e B2 (3dcB|A>ce>f g>ec>e|(3dfe (3dcB A2 (3a^ga|
b>a (3fed A>a^g>a|b>a (3gfe B>dc>B|A>c (3def g>Ab>c|d2 a2 d2||

